svgs/google_play_books.svg

<svg width="192" height="192" viewBox="0 0 192 192" fill="none" xmlns="http://www.w3.org/2000/svg"><path d="M40 170h96c8.837 0 16-7.163 16-16V38c0-8.837-7.163-16-16-16H40v148Z" stroke="#000" stroke-width="12" stroke-linejoin="round"/><path d="M128 66V22h-28v44l14-12 14 12Z" stroke="#000" stroke-width="12" stroke-linejoin="round"/></svg>

<?xml version="1.0" encoding="UTF-8" standalone="no"?><svg xmlns:android="http://schemas.android.com/apk/res/android" height="192" width="192" xmlns="http://www.w3.org/2000/svg">
  <path d="M40,170H136C144.837,170 152,162.837 152,154V38C152,29.163 144.837,22 136,22H40V170Z" fill="#000000" fill-opacity="0.0" stroke="#000000" stroke-linejoin="round" stroke-width="12"/>
  <path d="M128,66V22H100V66L114,54L128,66Z" fill="#000000" fill-opacity="0.0" stroke="#000000" stroke-linejoin="round" stroke-width="12"/>
</svg>
